X:1
T:Klarinettpolska
R:Polska
Z:TRANSKRIPTION GJORD AV Hkan Lidn, 2008-09-26
O:Jmtland
S:knd genom Hoven Droven
M:9/8
L:1/8
K:Gm
^f | g2 g ^fgf d2 A | B2 B2 AG A3- | A2 e cec cec | c2 f dfd dfd | d2 c2 B2-B2 G |
cdc BAG A2^F | G3 G3-G2 :: ^c |
